image/explore/icon-4.svg

<svg xmlns="http://www.w3.org/2000/svg" width="34" height="29" viewBox="0 0 34 29" fill="none"><rect x="1" y="25" width="24" height="32" rx="2" transform="rotate(-90 1 25)" stroke="#2E2E2E" stroke-width="2"></rect><line x1="6" y1="28" x2="28" y2="28" stroke="#2E2E2E" stroke-width="2"></line><mask id="path-3-inside-1_7745_10777" fill="white"><path fill-rule="evenodd" clip-rule="evenodd" d="M22.5433 14.0223C22.8448 14.7502 23 15.5304 23 16.3184L11 16.3184C11 15.5304 11.1552 14.7502 11.4567 14.0223C11.7583 13.2943 12.2002 12.6329 12.7574 12.0757C13.3145 11.5186 13.9759 11.0766 14.7039 10.7751C15.4319 10.4736 16.2121 10.3184 17 10.3184C17.7879 10.3184 18.5681 10.4736 19.2961 10.7751C20.0241 11.0766 20.6855 11.5186 21.2426 12.0757C21.7998 12.6329 22.2417 13.2943 22.5433 14.0223ZM15.5 14.0627C15.5 14.4769 15.1642 14.8127 14.75 14.8127C14.3358 14.8127 14 14.4769 14 14.0627C14 13.6485 14.3358 13.3127 14.75 13.3127C15.1642 13.3127 15.5 13.6485 15.5 14.0627ZM20 14.0627C20 14.4769 19.6642 14.8127 19.25 14.8127C18.8358 14.8127 18.5 14.4769 18.5 14.0627C18.5 13.6485 18.8358 13.3127 19.25 13.3127C19.6642 13.3127 20 13.6485 20 14.0627Z"></path></mask><path fill-rule="evenodd" clip-rule="evenodd" d="M22.5433 14.0223C22.8448 14.7502 23 15.5304 23 16.3184L11 16.3184C11 15.5304 11.1552 14.7502 11.4567 14.0223C11.7583 13.2943 12.2002 12.6329 12.7574 12.0757C13.3145 11.5186 13.9759 11.0766 14.7039 10.7751C15.4319 10.4736 16.2121 10.3184 17 10.3184C17.7879 10.3184 18.5681 10.4736 19.2961 10.7751C20.0241 11.0766 20.6855 11.5186 21.2426 12.0757C21.7998 12.6329 22.2417 13.2943 22.5433 14.0223ZM15.5 14.0627C15.5 14.4769 15.1642 14.8127 14.75 14.8127C14.3358 14.8127 14 14.4769 14 14.0627C14 13.6485 14.3358 13.3127 14.75 13.3127C15.1642 13.3127 15.5 13.6485 15.5 14.0627ZM20 14.0627C20 14.4769 19.6642 14.8127 19.25 14.8127C18.8358 14.8127 18.5 14.4769 18.5 14.0627C18.5 13.6485 18.8358 13.3127 19.25 13.3127C19.6642 13.3127 20 13.6485 20 14.0627Z" fill="#C63031"></path><path d="M23 16.3184V18.3184H25V16.3184H23ZM22.5433 14.0223L20.6955 14.7876L20.6955 14.7876L22.5433 14.0223ZM11 16.3184H9V18.3184H11L11 16.3184ZM11.4567 14.0223L9.60896 13.2569V13.2569L11.4567 14.0223ZM12.7574 12.0757L11.3431 10.6615L11.3431 10.6615L12.7574 12.0757ZM14.7039 10.7751L15.4693 12.6228H15.4693L14.7039 10.7751ZM19.2961 10.7751L20.0615 8.92732L20.0615 8.92732L19.2961 10.7751ZM21.2426 12.0757L22.6569 10.6615L22.6569 10.6615L21.2426 12.0757ZM25 16.3184C25 15.2678 24.7931 14.2275 24.391 13.2569L20.6955 14.7876C20.8965 15.2729 21 15.7931 21 16.3184H25ZM11 18.3184L23 18.3184V14.3184L11 14.3184L11 18.3184ZM9.60896 13.2569C9.20693 14.2275 9 15.2678 9 16.3184H13C13 15.7931 13.1035 15.2729 13.3045 14.7876L9.60896 13.2569ZM11.3431 10.6615C10.6003 11.4044 10.011 12.2863 9.60896 13.2569L13.3045 14.7876C13.5055 14.3023 13.8001 13.8614 14.1716 13.4899L11.3431 10.6615ZM13.9385 8.92732C12.9679 9.32936 12.086 9.91864 11.3431 10.6615L14.1716 13.4899C14.543 13.1185 14.984 12.8239 15.4693 12.6228L13.9385 8.92732ZM17 8.31836C15.9494 8.31836 14.9091 8.52529 13.9385 8.92732L15.4693 12.6228C15.9546 12.4218 16.4747 12.3184 17 12.3184V8.31836ZM20.0615 8.92732C19.0909 8.52529 18.0506 8.31836 17 8.31836V12.3184C17.5253 12.3184 18.0454 12.4218 18.5307 12.6228L20.0615 8.92732ZM22.6569 10.6615C21.914 9.91864 21.0321 9.32936 20.0615 8.92732L18.5307 12.6228C19.016 12.8239 19.457 13.1185 19.8284 13.4899L22.6569 10.6615ZM24.391 13.2569C23.989 12.2863 23.3997 11.4044 22.6569 10.6615L19.8284 13.4899C20.1999 13.8614 20.4945 14.3023 20.6955 14.7876L24.391 13.2569ZM14.75 16.8127C16.2688 16.8127 17.5 15.5815 17.5 14.0627H13.5C13.5 13.3723 14.0596 12.8127 14.75 12.8127V16.8127ZM12 14.0627C12 15.5815 13.2312 16.8127 14.75 16.8127V12.8127C15.4404 12.8127 16 13.3723 16 14.0627H12ZM14.75 11.3127C13.2312 11.3127 12 12.5439 12 14.0627H16C16 14.753 15.4404 15.3127 14.75 15.3127V11.3127ZM17.5 14.0627C17.5 12.5439 16.2688 11.3127 14.75 11.3127V15.3127C14.0596 15.3127 13.5 14.753 13.5 14.0627H17.5ZM19.25 16.8127C20.7688 16.8127 22 15.5815 22 14.0627H18C18 13.3723 18.5596 12.8127 19.25 12.8127V16.8127ZM16.5 14.0627C16.5 15.5815 17.7312 16.8127 19.25 16.8127V12.8127C19.9404 12.8127 20.5 13.3723 20.5 14.0627H16.5ZM19.25 11.3127C17.7312 11.3127 16.5 12.5439 16.5 14.0627H20.5C20.5 14.753 19.9404 15.3127 19.25 15.3127V11.3127ZM22 14.0627C22 12.5439 20.7688 11.3127 19.25 11.3127V15.3127C18.5596 15.3127 18 14.753 18 14.0627H22Z" fill="#C63031" mask="url(#path-3-inside-1_7745_10777)"></path><path fill-rule="evenodd" clip-rule="evenodd" d="M13.1097 9.46852C13.4331 9.20976 13.9051 9.26221 14.1638 9.58565L16.0379 11.9283C16.2967 12.2517 16.2442 12.7237 15.9208 12.9824C15.5973 13.2412 15.1254 13.1887 14.8666 12.8653L12.9925 10.5227C12.7338 10.1992 12.7862 9.72728 13.1097 9.46852Z" fill="#C63031"></path><path fill-rule="evenodd" clip-rule="evenodd" d="M21.07 9.46852C20.7466 9.20976 20.2746 9.26221 20.0159 9.58565L18.1418 11.9283C17.883 12.2517 17.9355 12.7237 18.2589 12.9824C18.5823 13.2412 19.0543 13.1887 19.3131 12.8653L21.1872 10.5227C21.4459 10.1992 21.3935 9.72728 21.07 9.46852Z" fill="#C63031"></path></svg>

<svg xmlns="http://www.w3.org/2000/svg" width="34" height="29" fill="none"><rect x="1" y="25" width="24" height="32" rx="2" transform="rotate(-90 1 25)" stroke="#2E2E2E" stroke-width="2"/><path stroke="#2E2E2E" stroke-width="2" d="M6 28h22"/><mask id="a" fill="#fff"><path fill-rule="evenodd" clip-rule="evenodd" d="M22.543 14.022A6 6 0 0 1 23 16.318H11a6 6 0 0 1 11.543-2.296Zm-7.043.04a.75.75 0 1 1-1.5 0 .75.75 0 0 1 1.5 0Zm4.5 0a.75.75 0 1 1-1.5 0 .75.75 0 0 1 1.5 0Z"/></mask><path fill-rule="evenodd" clip-rule="evenodd" d="M22.543 14.022A6 6 0 0 1 23 16.318H11a6 6 0 0 1 11.543-2.296Zm-7.043.04a.75.75 0 1 1-1.5 0 .75.75 0 0 1 1.5 0Zm4.5 0a.75.75 0 1 1-1.5 0 .75.75 0 0 1 1.5 0Z" fill="#C63031"/><path d="M23 16.318v2h2v-2h-2Zm-.457-2.296-1.848.766 1.848-.766ZM11 16.318H9v2h2v-2Zm.457-2.296-1.848-.765 1.848.765Zm1.3-1.946-1.414-1.415 1.414 1.415Zm1.947-1.3.765 1.847-.765-1.848Zm4.592 0 .765-1.849-.765 1.848Zm1.947 1.3 1.414-1.415-1.414 1.415ZM25 16.318c0-1.05-.207-2.09-.609-3.061l-3.695 1.53A4 4 0 0 1 21 16.319h4Zm-14 2h12v-4H11v4Zm-1.391-5.061A8 8 0 0 0 9 16.318h4a4 4 0 0 1 .305-1.53l-3.696-1.531Zm1.734-2.595a8.001 8.001 0 0 0-1.734 2.595l3.696 1.53a4 4 0 0 1 .867-1.297l-2.829-2.829Zm2.595-1.735a8 8 0 0 0-2.595 1.735l2.829 2.828a4.002 4.002 0 0 1 1.297-.867l-1.53-3.696ZM17 8.318a8 8 0 0 0-3.062.61l1.531 3.695A4 4 0 0 1 17 12.318v-4Zm3.061.61A8 8 0 0 0 17 8.317v4a4 4 0 0 1 1.53.305l1.531-3.696Zm2.596 1.733a8 8 0 0 0-2.596-1.734l-1.53 3.696c.485.2.926.495 1.297.867l2.829-2.829Zm1.734 2.596a8 8 0 0 0-1.734-2.595l-2.829 2.828a4 4 0 0 1 .867 1.298l3.696-1.531Zm-9.641 3.556a2.75 2.75 0 0 0 2.75-2.75h-4c0-.69.56-1.25 1.25-1.25v4ZM12 14.063a2.75 2.75 0 0 0 2.75 2.75v-4c.69 0 1.25.56 1.25 1.25h-4Zm2.75-2.75a2.75 2.75 0 0 0-2.75 2.75h4c0 .69-.56 1.25-1.25 1.25v-4Zm2.75 2.75a2.75 2.75 0 0 0-2.75-2.75v4c-.69 0-1.25-.56-1.25-1.25h4Zm1.75 2.75a2.75 2.75 0 0 0 2.75-2.75h-4c0-.69.56-1.25 1.25-1.25v4Zm-2.75-2.75a2.75 2.75 0 0 0 2.75 2.75v-4c.69 0 1.25.56 1.25 1.25h-4Zm2.75-2.75a2.75 2.75 0 0 0-2.75 2.75h4c0 .69-.56 1.25-1.25 1.25v-4Zm2.75 2.75a2.75 2.75 0 0 0-2.75-2.75v4c-.69 0-1.25-.56-1.25-1.25h4Z" fill="#C63031" mask="url(#a)"/><path fill-rule="evenodd" clip-rule="evenodd" d="M13.11 9.469a.75.75 0 0 1 1.054.117l1.874 2.342a.75.75 0 1 1-1.171.937l-1.875-2.342a.75.75 0 0 1 .118-1.054ZM21.07 9.469a.75.75 0 0 0-1.054.117l-1.874 2.342a.75.75 0 1 0 1.171.937l1.874-2.342a.75.75 0 0 0-.117-1.054Z" fill="#C63031"/></svg>
